!!!SOCIAL_FUNCTION:	songs connected with war and hunting
!!!PDT:	1932
!!!OTL: No_41_War_Bundle_Dance_Song_(b).krn
!!!REG: Wisconsin
!!!LANG: Non-Tone
!!!LING_GROUP: Algonquin
**kern
*staff1
=1-
*clefF4
*k[b-e-]
*M5/8
8c\L
8c\
8d\
16c\L
16c\J
8B-\J
=2
2B-\
8G\
=3
8G\L
8G\
8F\
16F\L
16F\J
8F\J
=4
4F\
8F\L
8F\J
8r
=5
8B-\L
8B-\
8c\
16B-\L
16B-\J
8G\J
=6
2G\
8F\
=7
8F\L
8G\
8G\
16F\L
16F\J
8F\J
=8
4.F\
8r
8F\
=9
8F/L
8D/
8D/
16C/L
16C/J
8C/J
=10
2BB-/
8r
=11
8D/L
8D/
8D/
16BB-/L
16BB-/J
8BB-/J
=12
2BB-/
8r
==
*-
